X:151
T:Jacksons Morning Brush THO4.151
M:6/8
L:1/8
Z:vmp. Peter Dunk 2010/11.from a transcription by Fynn Titford-Mock 2007
B:Thompson's Compleat Collection of 200 Favourite Country Dances Volume IV.
Q:3/8=100
K:D
D|DEF EFD|DFA AFA|Bcd def|gee e2 D|DEF EFD|DFA AFA|Bcd def|fdd d2:|
|:e|fed faf|faf fdA|AFA def|gee e2 e|\
fed (3f/g/a/a|(3f/g/a/a fdA|AFA dge|fdd d2:|
|:e|fdf ece|dBd AFA|DFA dfa|gee e2 e|fdf ece|dBd AFA|DFA Bge|fdd d2:|

